X:101
T:Kinloch Of Kinloch. JBs.101
T:Blow The Wind Southerly,aka. JBs.101
R:Jig
S:Jas.Blackshaw MS, 1837, N.Shropshire
A:North Shropshire
Z:T. Weatherall 2006
Z:Tony Weatherall 200
M:6/8
L:1/8
Q:3/8=60
R:Air
K:C
e>dc GEG|AFA GEC|e>dc GEG|GAB c2d|!
e>dc GEG|AFA GEC|e>dc GEG|GABâ€Fineâ€ c2||!
g|e2e d2d|{d}cBc B2g|e2e d2d|ff/d/f/a/ g2g|!
e2e d2d|{d}cBc B2B|e2e dcâ€™b|ag^f â€œDCâ€g^f=f|]

